X:1
T:Un guardo ed una voce
T:Uno sguardo ed una voce
T:Donizetti
T:Domaine public. Librement Photocopiable
T:Domaine public. Librement Photocopiable
T:Domaine public. Librement Photocopiable
T:Domaine public. Librement Photocopiable
Z:Domaine public. Librement Photocopiable
%%score 1 2 { 3 | 4 }
L:1/8
Q:3/8=90
M:6/8
K:C
V:1 treble nm="voix1"
V:2 treble nm="voix2"
V:3 treble nm="Piano"
V:4 bass 
V:1
 z6 | z6 | z6 | z6 | z6 | z6 | z6 | z6 | z6 | z6 | z4 cd | efe ded | cdc BcB | ABc ded | %14
w: ||||||||||U- no|sguar- do di ne- ra pu-|pil \- * la nel mio|co- re la stra- da s'a-|
 c2 z G2 c | efe ded | cdc BcB | ABc ded | G3 z3 | g3 B3 | e3 ^G3 | A3 F3 | EGc e2 z | g3 B3 | %24
w: pri, co- me|rag- gio di so- le che|bril \- la e \- tra-|ver- sa la neb- bia del|di|co- me|rag \-|gio di|so \- \- le|che tra-|
 e3 ^G2 G | A3 c2 c | B2 z d2 g | g^fe ^dec | ^A2 B z3 | z6 | z3 d2 g | g^fe ^dec | (^A2 B) z3 | %33
w: ver- sa la|neb- bia del|di. Ah! se~un|lam- po~è la vi- ta che|pas- sa||e la|gio- ia non tor- na mai|più, *|
 z6 | z2 B G z2 | z2 d B z2 | z6 | _e4- ed | c4 Bc | dcB dc_A | G3 _E2 z | _e4- ed | c4 Bc | %43
w: |mai più|mai più||sia * me-|mo- ria~a que-|st'a \- \- ni \- ma|las- sa|u- * na|vo- ce~ed un|
 dcB dc_A | G_BB BcB | _B3 _A3 | G_BB BcB | _B3 _A3 | G_ee e3 | _e3 z3 | z _ee e3 | _e3 z3 | %52
w: guar \- \- do \- che|fu, sia me- mo- ria~a que-|st'a- ni-|ma, u- na vo- ce~ed un|guar \-|do u- no sguar-|do,|sia me- mo-|ria,|
 z3 c2 c | c2 z c2 c | g4 Gc | efe ded | cdc BcB | ABc ded | c4- c z | g3 fdf | e3 dBd | c3 BGB | %62
w: u- no|sguar- do che|fu U- no|sguar- do di ne- ra pu-|pil \- la nel \- mio|co- re la stra- da s'a-|pri, *|co- me \- \-|rag \- \- \-|gio di \- \-|
 c2 z z3 | z3 d2 ^d | ecG GAG | G2 d d2 ^d | ecG GAG | G3 F3 | E2 G c3 | z AB ^cBc | d2 A A3 | %71
w: sol.|Ah! se~un|lam- po~è la vi- ta che|pas- sa e la|gio- ia non tor- na mai|più, mai|più mai più|sia me- mo- ria~a que-|st'a- ni- ma|
 z GA BAB | c3 G3 | z _A_B c=Bc | F3 _A3 | G3 F3 | E2 G c3 | z AB ^cBc | d2 A A3 | z GA BAB | %80
w: a que- st'a- ni- ma|las- sa|sia me- mo- ria~u- no|sguar \-|do che|fu, ah si,|sia me- mo- ria~a que-|st'a- ni- ma,|a que- st'a- ni- ma|
 c3 G3 | z _A_B c=Bc | F3 _A3 | G3 F3 | E3 z3 | c3 c3 | d2 B d2 B | d2 B d2 B | e6 | c2 z E2 E | %90
w: las- sa|sia me- mo- ria~u- no|sguar \-|do che|fu,|sia me-|mo- ria a que-|st'a \- ni- ma|las-|sa u- no|
 F2 G F2 G | F2 G F2 G | E4- E z | c2 z c3 | d2 G d2 G | d2 G d2 G | e3 ^d3 | d3 c3 | ^F3 F2 F | %99
w: sguar- do, u- na|vo \- ce che|fu, *|sia me-|mo- ria a que-|st'a \- ni- ma|las- sa|u- na|vo- ce~ed un|
 F3 F2 F | E4- E z | G6 | G6 | B6 | c6 | B6 | c6 | B6 | c2 z z3 |] %109
w: guar- do che|fu *|che|fu,|che|fu,|che|fu,|che|fu,|
V:2
 z6 | z6 | z6 | z6 | z6 | z6 | z6 | z6 | z6 | z6 | z6 | z6 | z6 | z6 | z6 | z6 | z6 | z6 | g4 Gc | %19
w: ||||||||||||||||||Ah! U- na|
 efe ded | cdc BcB | ABc ded | c3 z Gc | efe ded | cdc BcB | ABc ded | G3 z3 | z6 | z3 B2 e | %29
w: vo- ce~un an ge- li- co~ac-|cen \- to lie \- ve|lie- ve sul l'al- ma po-|so, co- me|rag- gio del l'as- tro d'ar-|gen \- to l'on \- da~az-|zur- ra che dor- me ba-|cio.||Ah! se~un|
 eAB dcA | B2 G z3 | z6 | z3 B2 e | edc BcA | G z2 z2 d | B z2 z2 f | _a6 | g4- gf | _e4 de | %39
w: lam- po~è la vi- ta che|pas- sa||e la|gio- ia non tor- na mai|più, mai|più mai|più|sia * me-|mo- ria~a que-|
 f_ed fec | _B3 G2 z | g4- gf | _e4 de | f_ed fec | _B2 z z3 | z _BB Bf_A | G z G G2 z | %47
w: st'a \- \- ni \- ma|las- sa|u- * na|vo- ce~ed un|guar \- \- do \- che|fu,|sia me- mo- ria~a que-|st'a- ni- ma,|
 z _BB BfB | _B2 z z3 | z _ee e3 | _e2 z z3 | z _ee e3 | _e3 =e2 e | f3 ^f2 f | g6 | g3 f3 | %56
w: u- na vo- ce che|fu|u- na vo-|ce|sia me- mo-|ria, u- na|vo- ce che|fu|lie- ve,|
 e3 d3 | c3 B3 | c4 Gc | ege dfd | cec BdB | ABc ded | c2 z e2 e | fdB GAG | G2 c e2 e | fdB GAG | %66
w: lie- ve|si po-|so Co- me|rag- gio del l'as- tro d'ar-|gen \- to l'on \- da~az-|zur- ra che dor- me ba-|cio. Ah! se~un|lam- po~è la vi- ta che|pas- sa e la|gio- ia non tor- na mai|
 G3 e2 e | fdB GAG | c3 z2 e | g3 g3 | ^f3 d2 e | f2 z f2 f | e3 c3 | _e3 e3 | _d3 d2 =c | %75
w: più, no la|gio- ia non tor- na mai|più, ah|sia me-|mo- ria~a que-|st'a- ni- ma|las- sa|u- na|vo- ce~ed un|
 =B3 B2 d | c3 z2 e | g3 g3 | ^f3 d2 e | f3 f2 f | e3 c3 | _e3 e3 | _d3 d2 =c | B3 B2 d | c3 z3 | %85
w: guar- do che|fu ah|sia me-|mo- ria~a que-|st'a- ni- ma|las- sa|u- na|vo- ce~ed un|guar- do che|fu|
 e3 e3 | f2 d f2 d | f2 d f2 d | g6 | e2 z c2 c | d2 B d2 B | d2 B d2 B | c4- c z | e3 e3 | %94
w: sia me-|mo- ria a que-|st'a \- ni- ma|las-|sa u- no|sguar- do, u- na|vo \- ce che|fu, *|sia me-|
 f2 B f2 B | f2 B f2 B | g3 ^f3 | f3 e3 | d2 A d2 A | d2 G d2 G | c4- c z | d6 | e6 | g6 | e6 | %105
w: mo- ria a que-|st'a \- ni- ma|las- sa|u- na|vo \- ce~ed un|guar \- do che|fu *|che|fu,|che|fu,|
 d6 | e6 | g6 | c3 z3 |] %109
w: che|fu,|che|fu,|
V:3
 z6 | z4 [ee'][ff'] | [gg']2 z z [ee'][ff'] | [gg']2 z z [ee'][ff'] | %4
 [gg'][cc'][dd'] [ee'][Gg][Aa] | [^A^a]2 z [^CE]3 | [DF]3 [^D^F]3 | [EG]3 z3 | [F,B,]2 z z3 | %9
 z [G,CE][G,CE] z [G,CE][G,CE] | z [G,CE][G,CE] z [G,CE][G,CE] | z [G,CE][G,CE] z [G,B,F][G,B,F] | %12
 z [CE][CE] z [D^G][DG] | z [CA][CA] z [G,B,F][G,B,F] | z [G,CE][G,CE] z [G,CE][G,CE] | %15
 z [G,CE][G,CE] z [G,B,F][G,B,F] | z [CE][CE] z [DE^G][DEG] | z [CA][CA] z [CDA][CDA] | %18
 [B,DG]3 z3 | z [G,CE][G,CE] z [G,B,F][G,B,F] | z [CE][CE] z [D^G][DG] | %21
 z [CA][CA] z [G,B,F][G,B,F] | z [G,CE][G,CE] z [G,CE][G,CE] | z [G,CE][G,CE] z [G,C][G,B,F] | %24
 z [CE][CE] z [DE^G][DEG] | z [CA][CA] z [CDA][CDA] | z [B,DG][B,DG] z [B,DG][B,DG] | %27
 z [CD^F][CDF] z [CDA][CDA] | z [B,DG][B,DG] z [DEB][DEB] | z [CEA][CEA] z [CD^F][CDF] | %30
 z [B,DG][B,DG] z [B,DG][B,DG] | z [CD^F][CDF] z [CDA][CDA] | z [B,DG][B,DG] z [DEB][DEB] | %33
 z [CEA][CEA] z [CD^F][CDF] | [B,DG] z2 [B,D] z2 | [B,G] z2 [DB] z2 | [C_EF]2 z [_A,D]2 z | %37
 G,_B,_E GEB, | _A,C_E _AEC | _A,C_E _AEC | G,_B,_E GEB, | G,_B,_E GEB, | _A,C_E _AEC | %43
 _A,C z _A_EC | G,_B,_E B,_DG | _B,D_A B,FA | _B,_EG B,_DG | _B,D_A B,FA | [_B,G]_ee e[_EG][EG] | %49
 [F_A]_ee e[FA][FA] | [_GA]_ee e[GA][GA] | [G_B]_ee e[G=Be][GBe] | %52
 [_Ac_e][Ace][Ace] [Ac=e][Ace][Ace] | [_Acf][Acf][Acf] [Ac_g][Acg][Acg] | [GBg]3 z3 | %55
 z [G,CE][G,CE] z [G,B,F][G,B,F] | z [CE][CE] z [D^G][DG] | z [CA][CA] z [G,B,F][G,B,F] | %58
 z [CE][G,CE] z [G,CE][G,CE] | z [G,CE][G,CE] z [G,B,F][G,B,F] | z [CE][CE] z [DE^G][DEG] | %61
 z [CFA][CFA] z [G,B,F][G,B,F] | G,CE G,^A,E | G,B,F G,DF | G,CE G,^A,E | G,B,F G,DF | %66
 G,CE G,^A,E | G,B,F G,DF | z [G,CE][G,CE] z [G,CE][G,CE] | z [A,^CG][A,CG] z [A,CG][A,CG] | %70
 z [A,D^F][A,DF] z [A,DF][A,DF] | z [G,B,F][G,B,F] z [G,B,F][G,B,F] | %72
 z [G,CE][G,CE] z [G,CE][G,CE] | z [_A,C_E][A,CE] z [A,CE][A,CE] | %74
 z [_A,_DF][A,DF] z [A,DF][A,DF] | z [G,B,F][G,B,F] z [G,B,F][G,B,F] | %76
 z [G,CE][G,CE] z [G,CE][G,CE] | z [A,^CEG][A,CEG] z [A,CEG][A,CEG] | %78
 z [A,D^F][A,DF] z [DF][A,DF] | z [G,B,F][G,B,F] z [G,B,F][G,B,F] | z [G,CE][G,CE] z [G,CE][G,CE] | %81
 z [_A,C_E][A,CE] z [A,CE][A,CE] | z [_A,_DF][A,DF] z [A,DF][A,DF] | %83
 z [G,B,F][G,B,F] z [G,B,F][G,B,F] | z [G,CE][G,CE] z [G,CE][G,CE] | %85
 z [G,CE][G,CE] z [G,CE][G,CE] | z [G,B,F][G,B,F] z [G,B,F][G,B,F] | %87
 z [G,B,F][G,B,F] z [G,B,F][G,B,F] | z [G,CE][G,CE] z [G,CE][G,CE] | %89
 z [G,CE][G,CE] z [G,CE][G,CE] | z [G,B,F][G,B,F] z [G,B,F][G,B,F] | %91
 z [G,B,F][G,B,F] z [G,B,F][G,B,F] | z [G,CE][G,CE] z [G,CE][G,CE] | %93
 z [G,CE][G,CE] z [G,CE][G,CE] | z [G,B,F][G,B,F] z [G,B,F]F | z [G,B,F][G,B,F] z [G,B,F][G,B,F] | %96
 z [G,EG][G,EG] z [A,^D^F][A,DF] | z [^G,DF][G,DF] z [=G,CE][G,CE] | %98
 z [^F,A,D][F,A,D] z [F,A,D][F,A,D] | z [F,G,B,][F,G,B,] z [F,G,B,][F,G,B,] | %100
 z [G,CE][G,CE] z [G,CE][G,CE] | z [G,B,F][G,B,F] z [G,B,F][G,B,] | z [G,CE][G,CE] z [G,CE][G,CE] | %103
 z [G,B,F][G,B,F] z [G,B,F][G,B,F] | z [G,CE][G,CE] z [G,CE][G,CE] | %105
 z [G,B,F][G,B,F] z [G,B,F][G,B,F] | z [G,CE][G,CE] z [G,CE][G,CE] | [B,F]3 z3 | [CE] z2 [cec']3 |] %109
V:4
 z6 | z4 [E,E][F,F] | [G,G]3 z [E,E][F,F] | [G,G]2 z z [E,E][F,F] | %4
 [G,G][C,C][D,D] [E,E][G,,G,][A,,A,] | [^A,,^A,]6- | [A,,A,]3 [=A,,=A,]3 | [G,,G,]3 z3 | %8
 [G,,D,G,]3 z3 | [C,,C,] z2 [C,,C,] z2 | [C,,C,] z2 [C,,C,] z2 | C, z2 G,, z2 | A,,2 z E,,2 z | %13
 F,, z2 G,, z2 | C,2 z C,,2 z | C, z2 G,, z2 | A,, z2 E,,2 z | F,,2 z ^F,, z2 | G,,4 z2 | %19
 C, z2 G,,2 z | A,,2 z E,,2 z | F,, z2 G,,2 z | C,2 z C,,2 z | C,2 z G,,2 z | A,,2 z E,,2 z | %25
 F,,2 z ^F,,2 z | G,,2 z G,, z2 | A,,2 z ^F,, z2 | G,,2 z ^G,,2 z | A,,2 z D,, z2 | G,,2 z B,,2 z | %31
 A,,2 z ^F,,2 z | G,,2 z ^G,,2 z | A,,2 z D,, z2 | [G,,G,] z2 [G,,G,] z2 | %35
 [G,,D,G,]2 z [G,,G,] z2 | _A,,3 _B,,2 z | [_E,,_B,,_E,]4- [E,,B,,E,] z | [_E,,_E,]4- [E,,E,] z | %39
 [_E,,_E,]3 [E,,E,]3 | [_E,,_E,]4- [E,,E,] z | [_E,,_B,,_E,]6 | [_E,,_E,]4- [E,,E,] z | %43
 [_E,,_E,]3 [E,,E,]2 z | _E,3 =E,3 | F,3 D,3 | _E,3 =E,3 | F,3 D,3 | _E,4 z2 | z6 | z6 | z6 | z6 | %53
 z6 | z6 | C, z2 G,, z2 | A,,2 z E,,2 z | F,,2 z G,,2 z | C,2 z C,,2 z | C,2 z G,,2 z | %60
 A,,2 z E,,2 z | F,,2 z G,,2 z | C,2 z ^C,3 | D,3 B,,3 | C,3 ^C,3 | D,3 B,,3 | C,3 ^C,3 | %67
 D,3 B,,3 | C,2 z C,2 z | A,,2 z A,,2 z | D,3 D,,2 z | G,,2 z G,,2 z | C,3 C,,2 z | _A,,2 z A,,3 | %74
 F,,2 z F,,2 z | G,,2 z G,,2 z | C,2 z C,2 z | A,,2 z A,,3 | D,3 D,,2 z | G,,3 G,,3 | %80
 C,2 z C,,2 z | _A,,2 z A,,3 | F,,2 z F,,2 z | G,,2 z G,,2 z | [C,,C,]2 z [C,,C,] z2 | %85
 [C,,C,]2 z [C,,C,]2 z | [C,,C,]2 z [C,,C,] z2 | [C,,C,] z2 [C,,C,] z2 | [C,,C,]2 z [C,,C,]2 z | %89
 [C,,C,]2 z [C,,C,]2 z | [C,,C,]2 z [C,,C,]2 z | [C,,C,]2 z [C,,C,] z2 | C,2 z C,2 z | %93
 C,2 z C,2 z | C,2 z C,2 z | C,2 z C,2 z | C,2 z C,2 z | C,2 z C,2 z | C,2 z C,2 z | C,2 z C,2 z | %100
 C,2 z C,2 z | G,,2 z G,,2 z | C,2 z C,2 z | G,,2 z G,,2 z | C,2 z C,2 z | G,,2 z G,,2 z | %106
 C,2 z C, z2 | [G,,G,]4 z2 | [C,G,] z2 [C,,C,]2 z |] %109

